Gruvbox-Material-Icons/actions/16/stroke-cap-round.svg

<svg width="16" height="16" version="1.1" xmlns="http://www.w3.org/2000/svg">
  <defs>
    <style id="current-color-scheme" type="text/css">.ColorScheme-Text { color:#ebdbb2; } .ColorScheme-Highlight { color:#458588; }</style>
  </defs>
  <path class="ColorScheme-Text" d="m4 4h8v12h-8z" fill="currentColor" opacity=".3"/>
  <path class="ColorScheme-Text" d="m8 0s-4 0-4 4v12h1v-12h6v12h1v-12c0-4-4-4-4-4z" fill="currentColor"/>
</svg>

<svg xmlns="http://www.w3.org/2000/svg" width="16" height="16" version="1.1">
 <defs>
  <style id="current-color-scheme" type="text/css">
   .ColorScheme-Text { color:#ebdbb2; } .ColorScheme-Highlight { color:#458588; }
  </style>
 </defs>
 <path style="opacity:.30;fill:currentColor" class="ColorScheme-Text" d="M 4,4 H 12 V 16 H 4 Z"/>
 <path style="fill:currentColor" class="ColorScheme-Text" d="M 8 0 C 8 0 4 0 4 4 L 4 16 L 5 16 L 5 4 L 11 4 L 11 16 L 12 16 L 12 4 C 12 0 8 0 8 0 z"/>
</svg>
